!!!OTL: Whiskey in the Jar
!!!ONM: 88.
**kern
*clefG2
*k[] 
*C:
*M2/4
*MM110
{4g
=1
4c
4c
=2
(8e
8g)
4g
=3
4g
8g
8f
=4
(8e
8c)
8c}
{8e
=5
4c
8c
8c
=6
8e
8g
8g
8g
=7
8a
8cc
8b
8a
=8
(8a
8g)
8g}
{8g
=9
4g
8g
8a
=10
8b
4cc
8r
=11
8.a
16a
8a
8g
=12
8a
8cc}
{8cc
8g
=13
4a
8a
8g
=14
8a
8cc
8cc
8g
=15
4g
8r
8a
=16
8g
8f
8e
8c}
=17||
{4c
4A
=18
4G
4r
=19
8A
4A
8r
=20
8r
8B
4c
=21
4a
8a
8g
=22
8a
8b
8cc
8r}
=23
{4a
8a
8g
=24
8a
8b
8cc
8a
=25
4g
4e
=26
4.d
8c
=27
2c}
==
*-
!!!CNT: Folksongs of Maritime Canada
!!!MRD: 1928///-1932///
!!!OCL: Helen Creighton
!!!YOR: Songs and Ballads from Nova Scotia
!!!PPR: J.M. Dent & Sons, Limited
!!!PPP: Toronto, Canada
!!!PDT: 1932///
!!!reprint: Dover Publications, 1992: ISBN 0-486-21703-5
!!!ENC1: Craig Stuart Sapp (music and bibliographic data)                       
!!!ENC2: Marcus Pearce (phrase markings and key designations)                   
!!!ENC3: Darrell Conklin (phrase markings and key designations)   
!!!END: 2002/04/10/
!!!EEV: 2004/06/05
!!!MPN: Mr. Ben Henneberry
!!!PPG: 192
!!!EFL: 89/152
!!!ARE: Canada; Nova Scotia
!!!verses: 7
!!!VTS: 2420850780
